assets/img/braze_icons/google-chrome.svg

<svg fill="none" height="24" viewBox="0 0 24 24" width="24" xmlns="http://www.w3.org/2000/svg"><g fill="#801ed7"><path d="m7.3758 10.0948-2.74979-4.61186c-.22019-.3693-.33029-.55394-.3551-.76634-.02016-.17248.01601-.39024.09083-.54694.09215-.19298.23556-.31475.52238-.55829 1.91821-1.62879 4.4023-2.61137 7.11588-2.61137 3.8074 0 7.1629 1.93434 9.1376 4.87389.218.32456.327.48685.3174.65468-.0079.13793-.087.2864-.1971.36987-.1339.10156-.3442.10156-.7647.10156h-8.4932c-2.0868 0-3.87501 1.2784-4.6242 3.0948z"/><path d="m1 12c0-1.6886.38049-3.28837 1.06042-4.7182.16757-.35238.25136-.52857.40039-.60595.12248-.06359.29034-.07147.41823-.01962.15563.06308.26313.24338.47813.60398l4.23814 7.10799c.84421 1.5669 2.50009 2.6318 4.40469 2.6318.2053 0 .4076-.0124.6064-.0364l-2.67492 4.6614c-.21377.3725-.32065.5588-.49372.6845-.14039.102-.34837.1773-.52152.1888-.21346.0142-.38942-.0511-.74134-.1816-4.18941-1.5539-7.1749-5.5866-7.1749-10.3167z"/><path d="m11.7268 22.5147c-.1239.2159.0243.4853.2732.4853 6.0751 0 11-4.9249 11-11 0-.6198-.0513-1.2277-.1498-1.8196-.0617-.37051-.0925-.55576-.211-.73402-.0962-.14462-.265-.28766-.4234-.35875-.1953-.08763-.4102-.08763-.8401-.08763h-5.3753c.6277.83566.9996 1.8744.9996 3 0 .9795-.2817 1.8933-.7685 2.6647z"/><path d="m15 12c0 1.6569-1.3431 3-3 3s-3-1.3431-3-3 1.3431-3 3-3 3 1.3431 3 3z"/></g></svg>

<svg width="24" height="24" viewBox="0 0 24 24" fill="none" xmlns="http://www.w3.org/2000/svg">
<path d="M7.3758 10.0948L4.62601 5.48294C4.40582 5.11364 4.29572 4.929 4.27091 4.7166C4.25075 4.54412 4.28692 4.32636 4.36174 4.16966C4.45389 3.97668 4.5973 3.85491 4.88412 3.61137C6.80233 1.98258 9.28642 1 12 1C15.8074 1 19.1629 2.93434 21.1376 5.87389C21.3556 6.19845 21.4646 6.36074 21.455 6.52857C21.4471 6.6665 21.368 6.81497 21.2579 6.89844C21.124 7 20.9137 7 20.4932 7H12C9.9132 7 8.12499 8.2784 7.3758 10.0948Z" fill="#801ED7"/>
<path d="M1 12C1 10.3114 1.38049 8.71163 2.06042 7.2818C2.22799 6.92942 2.31178 6.75323 2.46081 6.67585C2.58329 6.61226 2.75115 6.60438 2.87904 6.65623C3.03467 6.71931 3.14217 6.89961 3.35717 7.26021L7.59531 14.3682C8.43952 15.9351 10.0954 17 12 17C12.2053 17 12.4076 16.9876 12.6064 16.9636L9.93148 21.625C9.71771 21.9975 9.61083 22.1838 9.43776 22.3095C9.29737 22.4115 9.08939 22.4868 8.91624 22.4983C8.70278 22.5125 8.52682 22.4472 8.1749 22.3167C3.98549 20.7628 1 16.7301 1 12Z" fill="#801ED7"/>
<path d="M11.7268 22.5147C11.6029 22.7306 11.7511 23 12 23C18.0751 23 23 18.0751 23 12C23 11.3802 22.9487 10.7723 22.8502 10.1804C22.7885 9.80989 22.7577 9.62464 22.6392 9.44638C22.543 9.30176 22.3742 9.15872 22.2158 9.08763C22.0205 9 21.8056 9 21.3757 9H16.0004C16.6281 9.83566 17 10.8744 17 12C17 12.9795 16.7183 13.8933 16.2315 14.6647L11.7268 22.5147Z" fill="#801ED7"/>
<path d="M15 12C15 13.6569 13.6569 15 12 15C10.3431 15 9 13.6569 9 12C9 10.3431 10.3431 9 12 9C13.6569 9 15 10.3431 15 12Z" fill="#801ED7"/>
</svg>
